!!!OTL: Der kleine Tambour.
!!!OTL-incipit: BIN DER KLEINE TAMBOUR VEIT
!!!COM: A. Polenz
!!!ARE: Europa, Mitteleuropa, Deutschland
!!!SCT: F0602
!!!TXL: @@DE
!!!YEM: Copyright 1995, estate of Helmut Schaffrath.
**kern	**text	**text
*ICvox	*	*
*clefG2	*	*
*M4/4	*	*
*met(c)	*	*
*k[b-e-]	*	*
*B-:	*	*
!LO:TX:a:t=Marſchmäßig und feurig.	!	!
{8f	1._Bin	2._Bin
8f	der	der
=1	=1	=1
8.b-/L	1._klei-	1._klei-
16aJ	.	.
8.b-L	-ne	-ne
16aJ	.	.
8.b-L	Tam-	Tam-
16aJ	.	.
8.b-/L	-bour	-bour
16ccJ	.	.
=2	=2	=2
4dd	Veit,	Veit,
4r	.	.
4r}	.	.
{8ee-	mei-	mei-
8dd	-ne	-ne
=3	=3	=3
8.ccL	Trom-	Trom-
16bnJ	.	.
8.ccL	-mel	-mel
16bnJ	.	.
8.ccL	kann	kann
16ee-J	.	.
8.ddL	ich	ich
16ccJ	.	.
=4	=4	=4
(4.b-T/	rüh-	rüh-
16aL	.	.
16gJ)	.	.
4f}	-ren,	-ren,
{8f	und	und
8f	die	die
=5	=5	=5
8.b-L	1._Gre-	2._Gre-
16aJ	.	.
8.b-L	-na-	-na-
16aJ	.	.
8.b-L	-die-	-die-
16aJ	.	.
8.b-/L	-re	-re
16ccJ	.	.
=6	=6	=6
2dd	füh-	füh-
4een}	-ren	-ren
{8ff	ʒur	ʒur
8ff	Pa-	Pa-
=7	=7	=7
8.ffL	-ra-	-ra-
16eenJ	.	.
8.ddL	-de	-de
16ccJ	.	.
8.ccL	wie	wie
16b-J	.	.
8.aL	ʒum	ʒum
16gJ	.	.
=8	=8	=8
2f	Streit.	Streit.
4r}	.	.
{8f	Ruhet	Eh-
8f	.	-er-
=9	=9	=9
4f	ihr	-ʒi-
4cc	im	-ret
4dd	weichen	der
4cc	.	Re-
=10	=10	=10
8ccqq	.	.
4b-	1._Flaume	-2._tru-
4b-	.	-te,
4r}	.	.
{8b-	iſt	lehrt
8b-	die	ihn
=11	=11	=11
4dd''	Stadt	mei-
4cc''	noch	-ne
4b-''	ſtumm	Kunſt
4en''	und	den
=12	=12	=12
2f	leer:	Tackt;
4r}	.	.
{8f#	ſchlag'	Trommeln
8f#	ich	.
=13	=13	=13
4g''	ſchon	fül-
4d''	im	-len
4g''	ſtil-	ihn
4d''	-len	mit
=14	=14	=14
4.gSS	Rau-	Mu-
8a	.	.
4b-}/	-me	-the,
{8a	die	wenn
8g	Re-	Ka-
=15	=15	=15
4dd	-1._veil-	-2._no-
4dd	-le	-nenſcheu
4d	rund	.
4d	um-	ihn
=16	=16	=16
2g	-her.	packt.
8.r}	.	.
{16g	Dirum!	Dirum!
8.g	.	.
16g-	di-	di-
=17	=17	=17
4f	-rum!	-rum!
4f''	drum,	drum,
4f''	drum,	drum,
4f''	drum,	drum,
=18	=18	=18
2f''	drum!	drum!
4r}	.	.
{8a	Liebchen	Warum
8b-/	.	.
=19	=19	=19
4.cc	den-	ſeuf-
8cc	-ket	-ʒet
(8ddL	mein	mei-
8ccJ)	.	.
(8b-L	im	-ne
8ccJ)	.	.
=20	=20	=20
*Xtuplet	*	*
(>12dd/L	1._Trau-	2._Gu-
12ff	.	.
12ee-J	.	.
12cc/L	.	.
12ee-	.	.
12ddJ)	.	.
8.b-/}	-me;	-te?
{16f	Dirum!	Dirum!
8.f	.	.
16f	di-	di-
=21	=21	=21
4f	-rum!	-rum!
4f	drum,	drum,
4f	drum,	drum,
4f	drum,	drum,
=22	=22	=22
4f	drum!	drum!
4r	.	.
8r}	.	.
{8b-/	ich	ich
8.a	weiß	mer-
16b-/	gar	-ke
=23	=23	=23
(4.cc	wohl	wohl
16ddL	.	.
16ccJ	.	.
4b-/)	.	.
4a	wa-	wa-
=24	=24	=24
2b-/	-rum.	-rum.
4r}	.	.
==	==	==
!!!AGN: Soldaten - Lied, Liebe
!!!ONB: ESAC (Essen Associative Code) Database: FINK
!!!AMT: simple quadruple
!!!AIN: vox
!!!EED: Helmut Schaffrath
!!!EEV: 1.0
!!!RDF**kern: > = above
!!Text: O. L. B. Wolf
!!!GTL: Soldaten- und Jaegerlieder
!!!source: Musikalischer Hausschatz der Deutschen. Eine Sammlung von über 1000 Liedern und Gesängen mit Singstimmen und Klavierbegleitung. Leipzig, Litterarisches Verlags-Haus.
!!!page: 393
!!!URL-scan: https://www.digitale-sammlungen.de/en/view/bsb11144622?page=361
!!!ENC: Anna Maria Matuszewska
!!!EEV: 2024/08/02
*-	*-	*-
